frontend/src/assets/Icons/DashIcon.svg

<svg width="121" height="24" viewBox="0 0 121 24" fill="none" xmlns="http://www.w3.org/2000/svg">
<path fill-rule="evenodd" clip-rule="evenodd" d="M5.625 1.5H9C9.99456 1.5 10.9484 1.89509 11.6517 2.59835C12.3549 3.30161 12.75 4.25544 12.75 5.25V7.125C12.75 8.161 13.59 9 14.625 9H16.5C17.4946 9 18.4484 9.39509 19.1517 10.0983C19.8549 10.8016 20.25 11.7554 20.25 12.75V20.625C20.25 21.66 19.41 22.5 18.375 22.5H5.625C5.12772 22.5 4.65081 22.3025 4.29917 21.9508C3.94754 21.5992 3.75 21.1223 3.75 20.625V3.375C3.75 2.339 4.59 1.5 5.625 1.5ZM9.75 17.25C9.75 17.0511 9.67098 16.8603 9.53033 16.7197C9.38968 16.579 9.19891 16.5 9 16.5C8.80109 16.5 8.61032 16.579 8.46967 16.7197C8.32902 16.8603 8.25 17.0511 8.25 17.25V18C8.25 18.1989 8.32902 18.3897 8.46967 18.5303C8.61032 18.671 8.80109 18.75 9 18.75C9.19891 18.75 9.38968 18.671 9.53033 18.5303C9.67098 18.3897 9.75 18.1989 9.75 18V17.25ZM12 14.25C12.1989 14.25 12.3897 14.329 12.5303 14.4697C12.671 14.6103 12.75 14.8011 12.75 15V18C12.75 18.1989 12.671 18.3897 12.5303 18.5303C12.3897 18.671 12.1989 18.75 12 18.75C11.8011 18.75 11.6103 18.671 11.4697 18.5303C11.329 18.3897 11.25 18.1989 11.25 18V15C11.25 14.8011 11.329 14.6103 11.4697 14.4697C11.6103 14.329 11.8011 14.25 12 14.25ZM15.75 12.75C15.75 12.5511 15.671 12.3603 15.5303 12.2197C15.3897 12.079 15.1989 12 15 12C14.8011 12 14.6103 12.079 14.4697 12.2197C14.329 12.3603 14.25 12.5511 14.25 12.75V18C14.25 18.1989 14.329 18.3897 14.4697 18.5303C14.6103 18.671 14.8011 18.75 15 18.75C15.1989 18.75 15.3897 18.671 15.5303 18.5303C15.671 18.3897 15.75 18.1989 15.75 18V12.75Z" fill="black"/>
<path d="M14.2502 5.24992C14.2519 3.98846 13.7977 2.76888 12.9712 1.81592C14.6445 2.25588 16.1709 3.13239 17.3943 4.3558C18.6177 5.57922 19.4942 7.10563 19.9342 8.77892C18.9812 7.9524 17.7616 7.49817 16.5002 7.49992H14.6252C14.5257 7.49992 14.4304 7.46041 14.36 7.39008C14.2897 7.31976 14.2502 7.22437 14.2502 7.12492V5.24992Z" fill="black"/>
<path d="M43 18H39.4091V6.36364H43.1591C44.2879 6.36364 45.2538 6.59659 46.0568 7.0625C46.8598 7.52462 47.4754 8.18939 47.9034 9.05682C48.3314 9.92045 48.5455 10.9545 48.5455 12.1591C48.5455 13.3712 48.3295 14.4148 47.8977 15.2898C47.4659 16.161 46.8371 16.8314 46.0114 17.3011C45.1856 17.767 44.1818 18 43 18ZM40.8182 16.75H42.9091C43.8712 16.75 44.6686 16.5644 45.3011 16.1932C45.9337 15.822 46.4053 15.2936 46.7159 14.608C47.0265 13.9223 47.1818 13.1061 47.1818 12.1591C47.1818 11.2197 47.0284 10.411 46.7216 9.73295C46.4148 9.05114 45.9564 8.52841 45.3466 8.16477C44.7367 7.79735 43.9773 7.61364 43.0682 7.61364H40.8182V16.75ZM53.2955 18.2045C52.7424 18.2045 52.2405 18.1004 51.7898 17.892C51.339 17.6799 50.9811 17.375 50.7159 16.9773C50.4508 16.5758 50.3182 16.0909 50.3182 15.5227C50.3182 15.0227 50.4167 14.6174 50.6136 14.3068C50.8106 13.9924 51.0739 13.7462 51.4034 13.5682C51.733 13.3902 52.0966 13.2576 52.4943 13.1705C52.8958 13.0795 53.2992 13.0076 53.7045 12.9545C54.2348 12.8864 54.6648 12.8352 54.9943 12.8011C55.3277 12.7633 55.5701 12.7008 55.7216 12.6136C55.8769 12.5265 55.9545 12.375 55.9545 12.1591V12.1136C55.9545 11.553 55.8011 11.1174 55.4943 10.8068C55.1913 10.4962 54.7311 10.3409 54.1136 10.3409C53.4735 10.3409 52.9716 10.4811 52.608 10.7614C52.2443 11.0417 51.9886 11.3409 51.8409 11.6591L50.5682 11.2045C50.7955 10.6742 51.0985 10.2614 51.4773 9.96591C51.8598 9.66667 52.2765 9.45833 52.7273 9.34091C53.1818 9.2197 53.6288 9.15909 54.0682 9.15909C54.3485 9.15909 54.6705 9.19318 55.0341 9.26136C55.4015 9.32576 55.7557 9.46023 56.0966 9.66477C56.4413 9.86932 56.7273 10.178 56.9545 10.5909C57.1818 11.0038 57.2955 11.5568 57.2955 12.25V18H55.9545V16.8182H55.8864C55.7955 17.0076 55.6439 17.2102 55.4318 17.4261C55.2197 17.642 54.9375 17.8258 54.5852 17.9773C54.233 18.1288 53.803 18.2045 53.2955 18.2045ZM53.5 17C54.0303 17 54.4773 16.8958 54.8409 16.6875C55.2083 16.4792 55.4848 16.2102 55.6705 15.8807C55.8598 15.5511 55.9545 15.2045 55.9545 14.8409V13.6136C55.8977 13.6818 55.7727 13.7443 55.5795 13.8011C55.3902 13.8542 55.1705 13.9015 54.9205 13.9432C54.6742 13.9811 54.4337 14.0152 54.1989 14.0455C53.9678 14.072 53.7803 14.0947 53.6364 14.1136C53.2879 14.1591 52.9621 14.233 52.6591 14.3352C52.3598 14.4337 52.1174 14.5833 51.9318 14.7841C51.75 14.9811 51.6591 15.25 51.6591 15.5909C51.6591 16.0568 51.8314 16.4091 52.1761 16.6477C52.5246 16.8826 52.9659 17 53.5 17ZM65.9247 11.2273L64.7202 11.5682C64.6444 11.3674 64.5327 11.1723 64.3849 10.983C64.241 10.7898 64.044 10.6307 63.794 10.5057C63.544 10.3807 63.224 10.3182 62.8338 10.3182C62.2997 10.3182 61.8546 10.4413 61.4986 10.6875C61.1463 10.9299 60.9702 11.2386 60.9702 11.6136C60.9702 11.947 61.0914 12.2102 61.3338 12.4034C61.5762 12.5966 61.955 12.7576 62.4702 12.8864L63.7656 13.2045C64.5459 13.3939 65.1274 13.6837 65.5099 14.0739C65.8925 14.4602 66.0838 14.9583 66.0838 15.5682C66.0838 16.0682 65.9399 16.5152 65.652 16.9091C65.3679 17.303 64.9702 17.6136 64.4588 17.8409C63.9474 18.0682 63.3527 18.1818 62.6747 18.1818C61.7846 18.1818 61.0478 17.9886 60.4645 17.6023C59.8812 17.2159 59.5118 16.6515 59.3565 15.9091L60.6293 15.5909C60.7505 16.0606 60.9796 16.4129 61.3168 16.6477C61.6577 16.8826 62.1027 17 62.652 17C63.277 17 63.7732 16.8674 64.1406 16.6023C64.5118 16.3333 64.6974 16.0114 64.6974 15.6364C64.6974 15.3333 64.5914 15.0795 64.3793 14.875C64.1671 14.6667 63.8414 14.5114 63.402 14.4091L61.9474 14.0682C61.1482 13.8788 60.5611 13.5852 60.1861 13.1875C59.8149 12.786 59.6293 12.2841 59.6293 11.6818C59.6293 11.1894 59.7675 10.7538 60.044 10.375C60.3243 9.99621 60.705 9.69886 61.1861 9.48295C61.6709 9.26705 62.2202 9.15909 62.8338 9.15909C63.6974 9.15909 64.3755 9.34848 64.8679 9.72727C65.3641 10.1061 65.7164 10.6061 65.9247 11.2273ZM69.4432 12.75V18H68.1023V6.36364H69.4432V10.6364H69.5568C69.7614 10.1856 70.0682 9.82765 70.4773 9.5625C70.8902 9.29356 71.4394 9.15909 72.125 9.15909C72.7197 9.15909 73.2405 9.27841 73.6875 9.51705C74.1345 9.75189 74.4811 10.1136 74.7273 10.6023C74.9773 11.0871 75.1023 11.7045 75.1023 12.4545V18H73.7614V12.5455C73.7614 11.8523 73.5814 11.3163 73.2216 10.9375C72.8655 10.5549 72.3712 10.3636 71.7386 10.3636C71.2992 10.3636 70.9053 10.4564 70.5568 10.642C70.2121 10.8277 69.9394 11.0985 69.7386 11.4545C69.5417 11.8106 69.4432 12.2424 69.4432 12.75ZM77.7372 18V6.36364H79.0781V10.6591H79.1918C79.2902 10.5076 79.4266 10.3144 79.6009 10.0795C79.7789 9.84091 80.0327 9.62879 80.3622 9.44318C80.6955 9.25379 81.1463 9.15909 81.7145 9.15909C82.4493 9.15909 83.0971 9.3428 83.6577 9.71023C84.2183 10.0777 84.6558 10.5985 84.9702 11.2727C85.2846 11.947 85.4418 12.7424 85.4418 13.6591C85.4418 14.5833 85.2846 15.3845 84.9702 16.0625C84.6558 16.7367 84.2202 17.2595 83.6634 17.6307C83.1065 17.9981 82.4645 18.1818 81.7372 18.1818C81.1766 18.1818 80.7277 18.089 80.3906 17.9034C80.0535 17.714 79.794 17.5 79.6122 17.2614C79.4304 17.0189 79.2902 16.8182 79.1918 16.6591H79.0327V18H77.7372ZM79.0554 13.6364C79.0554 14.2955 79.152 14.8769 79.3452 15.3807C79.5384 15.8807 79.8205 16.2727 80.1918 16.5568C80.563 16.8371 81.0175 16.9773 81.5554 16.9773C82.116 16.9773 82.5838 16.8295 82.9588 16.5341C83.3376 16.2348 83.6217 15.8333 83.8111 15.3295C84.0043 14.822 84.1009 14.2576 84.1009 13.6364C84.1009 13.0227 84.0062 12.4697 83.8168 11.9773C83.6312 11.4811 83.349 11.089 82.9702 10.8011C82.5952 10.5095 82.1236 10.3636 81.5554 10.3636C81.0099 10.3636 80.5516 10.5019 80.1804 10.7784C79.8092 11.0511 79.5289 11.4337 79.3395 11.9261C79.1501 12.4148 79.0554 12.9848 79.0554 13.6364ZM91.0384 18.1818C90.2505 18.1818 89.5592 17.9943 88.9645 17.6193C88.3736 17.2443 87.9115 16.7197 87.5781 16.0455C87.2486 15.3712 87.0838 14.5833 87.0838 13.6818C87.0838 12.7727 87.2486 11.9792 87.5781 11.3011C87.9115 10.6231 88.3736 10.0966 88.9645 9.72159C89.5592 9.34659 90.2505 9.15909 91.0384 9.15909C91.8262 9.15909 92.5156 9.34659 93.1065 9.72159C93.7012 10.0966 94.1634 10.6231 94.4929 11.3011C94.8262 11.9792 94.9929 12.7727 94.9929 13.6818C94.9929 14.5833 94.8262 15.3712 94.4929 16.0455C94.1634 16.7197 93.7012 17.2443 93.1065 17.6193C92.5156 17.9943 91.8262 18.1818 91.0384 18.1818ZM91.0384 16.9773C91.6368 16.9773 92.1293 16.8239 92.5156 16.517C92.902 16.2102 93.188 15.8068 93.3736 15.3068C93.5592 14.8068 93.652 14.2652 93.652 13.6818C93.652 13.0985 93.5592 12.5549 93.3736 12.0511C93.188 11.5473 92.902 11.1402 92.5156 10.8295C92.1293 10.5189 91.6368 10.3636 91.0384 10.3636C90.4399 10.3636 89.9474 10.5189 89.5611 10.8295C89.1747 11.1402 88.8887 11.5473 88.7031 12.0511C88.5175 12.5549 88.4247 13.0985 88.4247 13.6818C88.4247 14.2652 88.5175 14.8068 88.7031 15.3068C88.8887 15.8068 89.1747 16.2102 89.5611 16.517C89.9474 16.8239 90.4399 16.9773 91.0384 16.9773ZM99.608 18.2045C99.0549 18.2045 98.553 18.1004 98.1023 17.892C97.6515 17.6799 97.2936 17.375 97.0284 16.9773C96.7633 16.5758 96.6307 16.0909 96.6307 15.5227C96.6307 15.0227 96.7292 14.6174 96.9261 14.3068C97.1231 13.9924 97.3864 13.7462 97.7159 13.5682C98.0455 13.3902 98.4091 13.2576 98.8068 13.1705C99.2083 13.0795 99.6117 13.0076 100.017 12.9545C100.547 12.8864 100.977 12.8352 101.307 12.8011C101.64 12.7633 101.883 12.7008 102.034 12.6136C102.189 12.5265 102.267 12.375 102.267 12.1591V12.1136C102.267 11.553 102.114 11.1174 101.807 10.8068C101.504 10.4962 101.044 10.3409 100.426 10.3409C99.786 10.3409 99.2841 10.4811 98.9205 10.7614C98.5568 11.0417 98.3011 11.3409 98.1534 11.6591L96.8807 11.2045C97.108 10.6742 97.411 10.2614 97.7898 9.96591C98.1723 9.66667 98.589 9.45833 99.0398 9.34091C99.4943 9.2197 99.9413 9.15909 100.381 9.15909C100.661 9.15909 100.983 9.19318 101.347 9.26136C101.714 9.32576 102.068 9.46023 102.409 9.66477C102.754 9.86932 103.04 10.178 103.267 10.5909C103.494 11.0038 103.608 11.5568 103.608 12.25V18H102.267V16.8182H102.199C102.108 17.0076 101.956 17.2102 101.744 17.4261C101.532 17.642 101.25 17.8258 100.898 17.9773C100.545 18.1288 100.116 18.2045 99.608 18.2045ZM99.8125 17C100.343 17 100.79 16.8958 101.153 16.6875C101.521 16.4792 101.797 16.2102 101.983 15.8807C102.172 15.5511 102.267 15.2045 102.267 14.8409V13.6136C102.21 13.6818 102.085 13.7443 101.892 13.8011C101.703 13.8542 101.483 13.9015 101.233 13.9432C100.987 13.9811 100.746 14.0152 100.511 14.0455C100.28 14.072 100.093 14.0947 99.9489 14.1136C99.6004 14.1591 99.2746 14.233 98.9716 14.3352C98.6723 14.4337 98.4299 14.5833 98.2443 14.7841C98.0625 14.9811 97.9716 15.25 97.9716 15.5909C97.9716 16.0568 98.1439 16.4091 98.4886 16.6477C98.8371 16.8826 99.2784 17 99.8125 17ZM106.055 18V9.27273H107.351V10.5909H107.442C107.601 10.1591 107.889 9.80871 108.305 9.53977C108.722 9.27083 109.192 9.13636 109.714 9.13636C109.813 9.13636 109.936 9.13826 110.084 9.14205C110.232 9.14583 110.343 9.15152 110.419 9.15909V10.5227C110.374 10.5114 110.269 10.4943 110.107 10.4716C109.947 10.4451 109.779 10.4318 109.601 10.4318C109.177 10.4318 108.798 10.5208 108.464 10.6989C108.135 10.8731 107.874 11.1155 107.68 11.4261C107.491 11.733 107.396 12.0833 107.396 12.4773V18H106.055ZM115.038 18.1818C114.311 18.1818 113.669 17.9981 113.112 17.6307C112.555 17.2595 112.12 16.7367 111.805 16.0625C111.491 15.3845 111.334 14.5833 111.334 13.6591C111.334 12.7424 111.491 11.947 111.805 11.2727C112.12 10.5985 112.557 10.0777 113.118 9.71023C113.679 9.3428 114.326 9.15909 115.061 9.15909C115.629 9.15909 116.078 9.25379 116.408 9.44318C116.741 9.62879 116.995 9.84091 117.169 10.0795C117.347 10.3144 117.485 10.5076 117.584 10.6591H117.697V6.36364H119.038V18H117.743V16.6591H117.584C117.485 16.8182 117.345 17.0189 117.163 17.2614C116.982 17.5 116.722 17.714 116.385 17.9034C116.048 18.089 115.599 18.1818 115.038 18.1818ZM115.22 16.9773C115.758 16.9773 116.213 16.8371 116.584 16.5568C116.955 16.2727 117.237 15.8807 117.43 15.3807C117.624 14.8769 117.72 14.2955 117.72 13.6364C117.72 12.9848 117.625 12.4148 117.436 11.9261C117.247 11.4337 116.966 11.0511 116.595 10.7784C116.224 10.5019 115.766 10.3636 115.22 10.3636C114.652 10.3636 114.179 10.5095 113.8 10.8011C113.425 11.089 113.143 11.4811 112.953 11.9773C112.768 12.4697 112.675 13.0227 112.675 13.6364C112.675 14.2576 112.769 14.822 112.959 15.3295C113.152 15.8333 113.436 16.2348 113.811 16.5341C114.19 16.8295 114.66 16.9773 115.22 16.9773Z" fill="#1A1A1A"/>
</svg>

<svg xmlns="http://www.w3.org/2000/svg" viewBox="0 0 24 24" fill="currentColor">
  <path fillRule="evenodd" d="M5.625 1.5H9a3.75 3.75 0 013.75 3.75v1.875c0 1.036.84 1.875 1.875 1.875H16.5a3.75 3.75 0 013.75 3.75v7.875c0 1.035-.84 1.875-1.875 1.875H5.625a1.875 1.875 0 01-1.875-1.875V3.375c0-1.036.84-1.875 1.875-1.875zM9.75 17.25a.75.75 0 00-1.5 0V18a.75.75 0 001.5 0v-.75zm2.25-3a.75.75 0 01.75.75v3a.75.75 0 01-1.5 0v-3a.75.75 0 01.75-.75zm3.75-1.5a.75.75 0 00-1.5 0V18a.75.75 0 001.5 0v-5.25z" clipRule="evenodd" />
  <path d="M14.25 5.25a5.23 5.23 0 00-1.279-3.434 9.768 9.768 0 016.963 6.963A5.23 5.23 0 0016.5 7.5h-1.875a.375.375 0 01-.375-.375V5.25z" />
</svg>
